X:12998
T:People's, Matt
M:C
L:1/8
K:A Dorian
A2eA BAeB|Bdgd BAGB|A2eA BAeA|BAGB A4:|!
a2ea agef|gBB2 g3g|a2ea aged|BAGA BAA2|!
a2ea agef|gBB2 g3g|afge fced|BAGA BAA2|]!
